X:2867
T:Irish Washerwoman. JMT052
O:england
M:6/8
L:1/8
Q:200
S:J.Moore,Tyneside,1841.(39a)
R:Jig
A:Northumbria
K:G
d/c/|BGG DGG|BGB dcB|cAA DAA|cAc edc|
BGG DGG|BGB dcB|cBc Adc|BGG G2:|
|:g/a/|bgg dgg|bgb bag|afd Adg|fdf agf|
e-gg d-gg|c-gg B-gg|d/c/Bc Adc|BGGG2:|]


